img/services/thumb-up-icon.svg

<svg width="77" height="76" viewBox="0 0 77 76" fill="none" xmlns="http://www.w3.org/2000/svg">
<path opacity="0.06" d="M55.4036 0.265625H21.6277C10.08 0.265625 0.71875 9.62687 0.71875 21.1745V54.9505C0.71875 66.4981 10.08 75.8594 21.6277 75.8594H55.4036C66.9513 75.8594 76.3125 66.4981 76.3125 54.9505V21.1745C76.3125 9.62687 66.9513 0.265625 55.4036 0.265625Z" fill="#0089FF"/>
<path d="M38.5157 63.803C52.7317 63.803 64.2561 52.2786 64.2561 38.0626C64.2561 23.8466 52.7317 12.3222 38.5157 12.3222C24.2996 12.3222 12.7753 23.8466 12.7753 38.0626C12.7753 52.2786 24.2996 63.803 38.5157 63.803Z" fill="#1B76FF"/>
<path fill-rule="evenodd" clip-rule="evenodd" d="M25.1058 32.9687H29.7516V51.1298H25.1058C24.4063 51.1298 23.8392 50.5898 23.8392 49.9236V34.175C23.8392 33.5088 24.4063 32.9687 25.1058 32.9687Z" stroke="white" stroke-width="1.60838" stroke-linecap="round" stroke-linejoin="round"/>
<path fill-rule="evenodd" clip-rule="evenodd" d="M51.7796 47.7297C51.4855 49.9931 49.9732 51.1299 47.2848 51.1299H33.2172C31.3058 51.1299 29.7516 49.667 29.7516 47.8681V32.9905C34.2128 32.5556 36.4434 30.9982 36.4434 26.8104V24.8035C36.4434 22.6883 38.2439 20.9735 40.4649 20.9735C41.3113 20.9735 42.1361 21.2278 42.8219 21.7003C43.7671 22.3526 44.3693 23.5882 44.3693 25.3673V31.1765C44.3693 31.6707 45.2058 32.0759 46.0424 32.0759H50.5298C52.4202 32.0759 53.9535 33.4992 53.9955 35.2685C54.0235 36.448 53.2849 40.0991 51.7796 47.7297Z" stroke="white" stroke-width="1.60838" stroke-linecap="round" stroke-linejoin="round"/>
</svg>

<svg xmlns="http://www.w3.org/2000/svg" width="77" height="76" fill="none"><path fill="#0089FF" d="M55.404.266H21.628C10.08.266.718 9.626.718 21.174V54.95c0 11.548 9.362 20.91 20.91 20.91h33.776c11.547 0 20.908-9.362 20.908-20.91V21.174c0-11.547-9.36-20.908-20.908-20.908Z" opacity=".06"/><path fill="#1B76FF" d="M38.516 63.803c14.216 0 25.74-11.524 25.74-25.74s-11.524-25.74-25.74-25.74-25.74 11.524-25.74 25.74 11.524 25.74 25.74 25.74Z"/><path stroke="#fff" stroke-linecap="round" stroke-linejoin="round" stroke-width="1.608" d="M25.106 32.969h4.646v18.16h-4.646c-.7 0-1.267-.54-1.267-1.205V34.175c0-.666.567-1.206 1.267-1.206Z" clip-rule="evenodd"/><path stroke="#fff" stroke-linecap="round" stroke-linejoin="round" stroke-width="1.608" d="M51.78 47.73c-.294 2.263-1.807 3.4-4.495 3.4H33.217c-1.911 0-3.465-1.463-3.465-3.262V32.99c4.46-.434 6.691-1.992 6.691-6.18v-2.006c0-2.116 1.8-3.83 4.022-3.83.846 0 1.671.254 2.357.726.945.653 1.547 1.888 1.547 3.667v5.81c0 .494.837.899 1.673.899h4.488c1.89 0 3.423 1.423 3.465 3.193.029 1.179-.71 4.83-2.215 12.46Z" clip-rule="evenodd"/></svg>
